public/icons/cart3-1.svg

<svg width="732" height="413" xmlns="http://www.w3.org/2000/svg" version="1.1" viewBox="0 0 732 413" fill="none"
    xmlns="http://www.w3.org/2000/svg">
    <path d="M727 122.74V255.17L651.784 396H132.431M592.44 17H82.7568L1 170.076V262.549"
        stroke="url(#paint0_linear_446_951)" />
    <g filter="url(#filter0_b_446_951)">
        <path d="M0 352.101L59.9233 412.024H0V352.101Z" fill="url(#paint1_linear_446_951)" fill-opacity="0.3" />
    </g>
    <g filter="url(#filter1_b_446_951)">
        <path d="M731.695 59.9233L671.772 7.62939e-06H731.695V59.9233Z" fill="url(#paint2_linear_446_951)"
            fill-opacity="0.3" />
    </g>
    <g filter="url(#filter2_b_446_951)">
        <path d="M93.9543 28.9996H716.114V249.303L643.476 382.645H15V173.936L93.9543 28.9996Z"
            fill="url(#paint3_linear_446_951)" fill-opacity="0.15" />
        <path d="M15.5 174.064L94.2513 29.4996H715.614V249.176L643.179 382.145H15.5V174.064Z"
            stroke="url(#paint4_linear_446_951)" />
    </g>
    <defs>
        <filter id="filter0_b_446_951" x="-46.3291" y="305.772" width="152.582" height="152.582"
            filterUnits="userSpaceOnUse" color-interpolation-filters="sRGB">
            <feFlood flood-opacity="0" result="BackgroundImageFix" />
            <feGaussianBlur in="BackgroundImage" stdDeviation="23.1646" />
            <feComposite in2="SourceAlpha" operator="in" result="effect1_backgroundBlur_446_951" />
            <feBlend mode="normal" in="SourceGraphic" in2="effect1_backgroundBlur_446_951" result="shape" />
        </filter>
        <filter id="filter1_b_446_951" x="625.443" y="-46.3291" width="152.582" height="152.582"
            filterUnits="userSpaceOnUse" color-interpolation-filters="sRGB">
            <feFlood flood-opacity="0" result="BackgroundImageFix" />
            <feGaussianBlur in="BackgroundImage" stdDeviation="23.1646" />
            <feComposite in2="SourceAlpha" operator="in" result="effect1_backgroundBlur_446_951" />
            <feBlend mode="normal" in="SourceGraphic" in2="effect1_backgroundBlur_446_951" result="shape" />
        </filter>
        <filter id="filter2_b_446_951" x="-31.3291" y="-17.3295" width="793.772" height="446.304"
            filterUnits="userSpaceOnUse" color-interpolation-filters="sRGB">
            <feFlood flood-opacity="0" result="BackgroundImageFix" />
            <feGaussianBlur in="BackgroundImage" stdDeviation="23.1646" />
            <feComposite in2="SourceAlpha" operator="in" result="effect1_backgroundBlur_446_951" />
            <feBlend mode="normal" in="SourceGraphic" in2="effect1_backgroundBlur_446_951" result="shape" />
        </filter>
        <linearGradient id="paint0_linear_446_951" x1="1" y1="206.5" x2="727" y2="206.5" gradientUnits="userSpaceOnUse">
            <stop stop-color="#82F7CE" />
            <stop offset="0.49248" stop-color="#4630C7" />
            <stop offset="1" stop-color="#D750EC" />
        </linearGradient>
        <linearGradient id="paint1_linear_446_951" x1="29.9617" y1="352.101" x2="29.9617" y2="412.024"
            gradientUnits="userSpaceOnUse">
            <stop stop-color="#11D9EB" />
            <stop offset="1" stop-color="#11D9EB" stop-opacity="0.3" />
        </linearGradient>
        <linearGradient id="paint2_linear_446_951" x1="701.734" y1="59.9233" x2="701.734" y2="7.62939e-06"
            gradientUnits="userSpaceOnUse">
            <stop stop-color="#11D9EB" />
            <stop offset="1" stop-color="#11D9EB" stop-opacity="0.3" />
        </linearGradient>
        <linearGradient id="paint3_linear_446_951" x1="129" y1="76" x2="617" y2="383" gradientUnits="userSpaceOnUse">
            <stop stop-color="#11D9EB" />
            <stop offset="1" stop-color="#5670FD" />
        </linearGradient>
        <linearGradient id="paint4_linear_446_951" x1="31.3613" y1="320.74" x2="707.737" y2="299.544"
            gradientUnits="userSpaceOnUse">
            <stop stop-color="#E42BC8" />
            <stop offset="0.52934" stop-color="#5670FD" />
            <stop offset="1" stop-color="#1DCEF4" />
        </linearGradient>
    </defs>
</svg>

<svg width="732" height="413" xmlns="http://www.w3.org/2000/svg" fill="none"><path d="M727 122.74v132.43L651.784 396H132.431M592.44 17H82.757L1 170.076v92.473" stroke="url(#a)"/><g filter="url(#b)"><path d="m0 352.101 59.923 59.923H0v-59.923z" fill="url(#c)" fill-opacity=".3"/></g><g filter="url(#d)"><path d="M731.695 59.923 671.772 0h59.923v59.923z" fill="url(#e)" fill-opacity=".3"/></g><g filter="url(#f)"><path d="M93.954 29h622.16v220.303l-72.638 133.342H15V173.936L93.954 29z" fill="url(#g)" fill-opacity=".15"/><path d="M15.5 174.064 94.251 29.5h621.363v219.676l-72.435 132.969H15.5V174.064z" stroke="url(#h)"/></g><defs><linearGradient id="a" x1="1" y1="206.5" x2="727" y2="206.5" gradientUnits="userSpaceOnUse"><stop stop-color="#82F7CE"/><stop offset=".492" stop-color="#4630C7"/><stop offset="1" stop-color="#D750EC"/></linearGradient><linearGradient id="c" x1="29.962" y1="352.101" x2="29.962" y2="412.024" gradientUnits="userSpaceOnUse"><stop stop-color="#11D9EB"/><stop offset="1" stop-color="#11D9EB" stop-opacity=".3"/></linearGradient><linearGradient id="e" x1="701.734" y1="59.923" x2="701.734" y2="0" gradientUnits="userSpaceOnUse"><stop stop-color="#11D9EB"/><stop offset="1" stop-color="#11D9EB" stop-opacity=".3"/></linearGradient><linearGradient id="g" x1="129" y1="76" x2="617" y2="383" gradientUnits="userSpaceOnUse"><stop stop-color="#11D9EB"/><stop offset="1" stop-color="#5670FD"/></linearGradient><linearGradient id="h" x1="31.361" y1="320.74" x2="707.737" y2="299.544" gradientUnits="userSpaceOnUse"><stop stop-color="#E42BC8"/><stop offset=".529" stop-color="#5670FD"/><stop offset="1" stop-color="#1DCEF4"/></linearGradient><filter id="b" x="-46.329" y="305.772" width="152.582" height="152.582" filterUnits="userSpaceOnUse" color-interpolation-filters="sRGB"><feFlood flood-opacity="0" result="BackgroundImageFix"/><feGaussianBlur in="BackgroundImage" stdDeviation="23.165"/><feComposite in2="SourceAlpha" operator="in" result="effect1_backgroundBlur_446_951"/><feBlend in="SourceGraphic" in2="effect1_backgroundBlur_446_951" result="shape"/></filter><filter id="d" x="625.443" y="-46.329" width="152.582" height="152.582" filterUnits="userSpaceOnUse" color-interpolation-filters="sRGB"><feFlood flood-opacity="0" result="BackgroundImageFix"/><feGaussianBlur in="BackgroundImage" stdDeviation="23.165"/><feComposite in2="SourceAlpha" operator="in" result="effect1_backgroundBlur_446_951"/><feBlend in="SourceGraphic" in2="effect1_backgroundBlur_446_951" result="shape"/></filter><filter id="f" x="-31.329" y="-17.329" width="793.772" height="446.304" filterUnits="userSpaceOnUse" color-interpolation-filters="sRGB"><feFlood flood-opacity="0" result="BackgroundImageFix"/><feGaussianBlur in="BackgroundImage" stdDeviation="23.165"/><feComposite in2="SourceAlpha" operator="in" result="effect1_backgroundBlur_446_951"/><feBlend in="SourceGraphic" in2="effect1_backgroundBlur_446_951" result="shape"/></filter></defs></svg>
